dist/images/favicon/Favicon.svg

<svg width="512" height="512" fill="none" xmlns="http://www.w3.org/2000/svg"><path fill="#FC784E" d="M0 0h512v512H0z"/><path d="M256.366 385.829c-21.699 0-40.351-3.292-55.955-9.875-15.603-6.583-27.428-15.238-35.474-25.965-8.046-10.728-12.312-22.309-12.8-34.743 0-2.195.732-4.023 2.194-5.486 1.463-1.463 3.292-2.194 5.486-2.194h32.549c2.925 0 5.12.609 6.583 1.828 1.706.976 3.291 2.682 4.754 5.12 2.438 8.29 8.046 15.238 16.823 20.846 8.777 5.608 20.724 8.411 35.84 8.411 17.31 0 30.354-2.803 39.131-8.411 8.777-5.851 13.166-13.897 13.166-24.137 0-6.827-2.316-12.434-6.949-16.823-4.388-4.389-11.093-8.168-20.114-11.337-8.777-3.17-21.943-7.071-39.497-11.703-28.77-6.827-49.859-15.848-63.269-27.063-13.165-11.459-19.748-27.672-19.748-48.64 0-14.141 3.779-26.697 11.337-37.668 7.802-10.972 18.895-19.627 33.28-25.966 14.628-6.339 31.573-9.509 50.834-9.509 19.993 0 37.303 3.536 51.932 10.606 14.628 7.07 25.721 15.97 33.28 26.697 7.801 10.484 11.946 20.968 12.434 31.452 0 2.194-.732 4.022-2.194 5.485-1.463 1.463-3.292 2.195-5.486 2.195h-34.012c-5.12 0-8.655-2.317-10.605-6.949-1.463-7.802-6.339-14.263-14.629-19.383-8.289-5.364-18.529-8.046-30.72-8.046-13.653 0-24.381 2.56-32.183 7.68-7.802 5.12-11.703 12.557-11.703 22.309 0 6.827 1.951 12.434 5.852 16.823 3.901 4.388 9.996 8.289 18.286 11.703 8.533 3.413 20.723 7.192 36.571 11.337 21.455 4.876 38.522 10.362 51.2 16.457 12.922 6.095 22.43 13.775 28.526 23.04 6.095 9.265 9.143 21.09 9.143 35.474 0 15.604-4.389 29.257-13.166 40.96-8.533 11.459-20.724 20.236-36.572 26.332-15.603 6.095-33.645 9.143-54.125 9.143z" fill="#fff"/></svg>

<svg width="512" height="512" viewBox="0 0 512 512" fill="none" xmlns="http://www.w3.org/2000/svg">
<rect width="512" height="512" fill="#FC784E"/>
<path d="M256.366 385.829C234.667 385.829 216.015 382.537 200.411 375.954C184.808 369.371 172.983 360.716 164.937 349.989C156.891 339.261 152.625 327.68 152.137 315.246C152.137 313.051 152.869 311.223 154.331 309.76C155.794 308.297 157.623 307.566 159.817 307.566H192.366C195.291 307.566 197.486 308.175 198.949 309.394C200.655 310.37 202.24 312.076 203.703 314.514C206.141 322.804 211.749 329.752 220.526 335.36C229.303 340.968 241.25 343.771 256.366 343.771C273.676 343.771 286.72 340.968 295.497 335.36C304.274 329.509 308.663 321.463 308.663 311.223C308.663 304.396 306.347 298.789 301.714 294.4C297.326 290.011 290.621 286.232 281.6 283.063C272.823 279.893 259.657 275.992 242.103 271.36C213.333 264.533 192.244 255.512 178.834 244.297C165.669 232.838 159.086 216.625 159.086 195.657C159.086 181.516 162.865 168.96 170.423 157.989C178.225 147.017 189.318 138.362 203.703 132.023C218.331 125.684 235.276 122.514 254.537 122.514C274.53 122.514 291.84 126.05 306.469 133.12C321.097 140.19 332.19 149.09 339.749 159.817C347.55 170.301 351.695 180.785 352.183 191.269C352.183 193.463 351.451 195.291 349.989 196.754C348.526 198.217 346.697 198.949 344.503 198.949H310.491C305.371 198.949 301.836 196.632 299.886 192C298.423 184.198 293.547 177.737 285.257 172.617C276.968 167.253 266.728 164.571 254.537 164.571C240.884 164.571 230.156 167.131 222.354 172.251C214.552 177.371 210.651 184.808 210.651 194.56C210.651 201.387 212.602 206.994 216.503 211.383C220.404 215.771 226.499 219.672 234.789 223.086C243.322 226.499 255.512 230.278 271.36 234.423C292.815 239.299 309.882 244.785 322.56 250.88C335.482 256.975 344.99 264.655 351.086 273.92C357.181 283.185 360.229 295.01 360.229 309.394C360.229 324.998 355.84 338.651 347.063 350.354C338.53 361.813 326.339 370.59 310.491 376.686C294.888 382.781 276.846 385.829 256.366 385.829Z" fill="white"/>
</svg>
